!!!!SEGMENT: pl-wnifc--13846--082_anonim--piesni-polskie-i-ruskie-ludu-galicyjskiego-82-ne-ma-w-switi-do-okola.krn
!!!cenid: 18xx:3304
!!!COM: Anonim
!!!COM-rismID: pe30004985
!!!CDT:
!!!CNT:
!!!GTL: Pieśni polskie i ruskie ludu galicyjskiego
!!!OTL: 82. Ne ma w'switi do okoła
!!!PDT: 1833
!!!AGN:
!!!SMS-siglum: PL-Wnifc
!!!SMS-shelfmark: 13846
!!!SMS-shelfwork: 082 G
!!!SMS-variant:
!!!SMS-altvar:
!!!NIFC-rismSourceID: 1001038993
!!!NIFC-rismChildID: 1001038993
!!!NIFC-islandoraID:
!!!URL-pdf-islandora:
!!!URL-scan:
!!!ONB-nifc:
!!!OMD: Andante.
!!!AIN: 1 piano 1 vox
!!!key: d
**kern	**kern	**kern	**text	**text
*part2	*part2	*part1	*part1	*part1
*group2	*group2	*group1	*group1	*group1
*staff3	*staff2	*staff1	*staff1	*staff1
*I"[FORTEPIAN.]	*I"[FORTEPIAN.]	*I"[GŁOS.]	*	*
*Ipiano	*Ipiano	*Ivox	*	*
*ICklav	*ICklav	*ICvox	*	*
*IGacmp	*IGacmp	*IGsolo	*	*
*clefF4	*clefG2	*clefG2	*	*
*k[b-]	*k[b-]	*k[b-]	*	*
*d:	*d:	*d:	*	*
*M2/4	*M2/4	*M2/4	*	*
*>[A,A,B,B]	*>[A,A,B,B]	*>[A,A,B,B]	*>[A,A,B,B]	*>[A,A,B,B]
=1-	=1-	=1-	=1-	=1-
*>A	*>A	*>A	*>A	*>A
!!LO:TX:t=P:problem:tekst: Pieśni polskie i ruskie ludu galicyjskiego, s. 241.
!	!	!LO:TX:a:B:t=E.46.	!	!
8AA/ 8AAA/	8r	8.a/	Ne-	Kra-
8rAA	8a/ 8e/ 8c#X/ 8A</	.	.	.
!	!	!LO:SIC:v:l:s=-snyj:verse 2	!	!
.	.	16aa\	-ma	-sny
!	!	!LO:N:vis=8	!	!
8AA/ 8AAA/	8r	8.aa\	w świ-	z o-
8rAA	8a/ 8e/ 8c#/ 8A</	.	.	.
.	.	16gg\	-ti	-cziw
=2	=2	=2	=2	=2
8AA/ 8AAA/	8r	8ff\	do	my-
!	!	!LO:SIC:v:l:s=-łyj:verse 2	!	!
8r	8a/ 8f/ 8d/ 8A</	8ee\	o-	-ły
8AA/ 8AAA/	8r	8dd\	-ko-	z mo-
8r	8a/ 8f/ 8d/ 8A</	8cc#X\	-ła,	-wy,
=3	=3	=3	=3	=3
8AA/ 8AAA/	8r	8.dd\	jak	a
8r	8a/ 8f/ 8d/ 8A</	.	.	.
.	.	16ee\	mij	do
8AA/ 8AAA/	8r	8ff\	my-	to-
8r	8a/ 8f/ 8d/ 8A</	8dd\	-łeń-	-ho
!!pagebreak:original
=4	=4	=4	=4	=4
8AA/ 8AAA/	8r	8.ee\	-kyj	czo-
8rAA	8a/ 8e/ 8A</	.	.	.
.	.	16dd\	Ny-	-rno-
8AA/ 8AAA/	8r	8cc#X\	-ko-	-bro-
8rAA	8a/ 8e/ 8A</	8a/	-ła	-wy
=5:|!|:	=5:|!|:	=5:|!|:	=5:|!|:	=5:|!|:
*>B	*>B	*>B	*>B	*>B
!	!	!LO:N:vis=8	!	!
2AA/ 2AAA/	8r	4a/	Bo	.
.	8a/L 8g/ 8e/	.	.	.
.	8a/ 8g/ 8e/	(16cc#X\LL	na	.
.	.	16a\	.	.
.	8a/J 8g/ 8e/	16bn\)	.	.
.	.	16cc#`\JJ	Ny-	.
=6	=6	=6	=6	=6
2AA/ 2AAA/	8ryy	4.dd\	-ko-	.
.	8a/L 8f/ 8d/ 8A/	.	.	.
.	8a/ 8f/ 8d/ 8A/	.	.	.
.	8a/J 8f/ 8d/ 8A/	8ff\	-li	.
=7	=7	=7	=7	=7
8AA/ 8AAA/	8r	(8.ee\L	żow-	.
8r	8a/ 8e/ 8c#X/ 8A</	.	.	.
.	.	16cc#X\Jk)	.	.
8AA/ 8AAA/	8r	8a/	-ti	.
8r	8a/ 8e/ 8c#/ 8A</	8a/	czo-	.
!!linebreak:original
=8	=8	=8	=8	=8
8AA/ 8AAA/	8r	(8.a/L	-bo-	.
8rAA	8a/ 8e/ 8c#X/ 8A</	.	.	.
.	.	16bn\Jk	.	.
8AA/ 8AAA/	8r	8cc#X\L)	-ty,	.
8rAA	8a/ 8e/ 8c#/ 8A</	8a\J	.	.
=9	=9	=9	=9	=9
2AA/ 2AAA/	8r	4a/	z_nym	.
.	8a/L 8g/ 8e/ 8A</	.	.	.
.	8a/ 8g/ 8e/ 8A</	(16cc#X\LL	to	.
.	.	16a/	.	.
.	8a/J 8g/ 8e/ 8A</	16bn\	.	.
.	.	16cc#`\JJ)	do	.
=10	=10	=10	=10	=10
2AA/ 2AAA/	8r	4.dd\	tań-	.
.	8a/L 8f/ 8d/ 8A</	.	.	.
.	8a/ 8f/ 8d/ 8A</	.	.	.
.	8a/J 8f/ 8d/ 8A</	8ff\	-cia,	.
=11	=11	=11	=11	=11
8AA/ 8AAA/	8r	8ee\	z_nym	.
8r	8a/ 8g/ 8e/ 8A</	8aa\	i	.
8AA/ 8AAA/	8r	8.aa\	do	.
8r	8a/ 8g/ 8e/ 8A</	.	.	.
.	.	16cc#X\	ro-	.
=12	=12	=12	=12	=12
4D/ 4DD/	8ryy	4dd\	-bo-	.
.	8a/L 8f/ 8d/ 8A/	.	.	.
4r	8a/J 8f/ 8d/ 8A/	8dd\	-ty	.
.	8r	8r	.	.
=	=	=	=	=
*-	*-	*-	*-	*-
!!!system-decoration: g1{(g2)}
!!!RDF**kern: > = above
!!!RDF**kern: < = below
!!!RDF**kern: | = vertical stroke
!!!ENC: Katarzyna Serwa
!!!END: 2021-11-11
!!!YEC: Copyright 2022 Narodowy Instytut Fryderyka Chopina (https://polishscores.org)
!!!YEM: License CC-BY-4.0 (https://creativecommons.org/licenses/by/4.0)
